src/cmd/lc_graphicfiltermosaic.svg

<svg viewBox="0 0 24 24" xmlns="http://www.w3.org/2000/svg"><path d="m7 5v3h3v-3zm6 3v3h3v-3zm-6 3v3h3v-3zm6 3v3h3v-3zm-3 4a1 1 0 0 0 -1 1 1 1 0 0 0 1 1 1 1 0 0 0 1-1 1 1 0 0 0 -1-1zm4 0a1 1 0 0 0 -1 1 1 1 0 0 0 1 1 1 1 0 0 0 1-1 1 1 0 0 0 -1-1zm4 0a1 1 0 0 0 -1 1 1 1 0 0 0 1 1 1 1 0 0 0 1-1 1 1 0 0 0 -1-1z" fill="#e95420"/><path d="m10 5v3h3v-3zm6 3v3h3v-3zm-12 3v3h3v-3zm12 3v3h3v-3z" fill="#2ecc71"/><path d="m16 5v3h3v-3zm-6 3v3h3v-3zm6 3v3h3v-3zm-12 3v3h3v-3zm3 3v3h1v-3z" fill="#fdbc4b"/><path d="m4 5v3h3v-3zm3 3v3h3v-3zm6 3v3h3v-3zm0 3h-3v3h3zm-9 3v3h3v-3z" fill="#762572"/><path d="m13 5v3h3v-3zm-9 3v3h3v-3zm6 3v3h3v-3zm0 3h-3v3h3z" fill="#c7162b"/></svg>

<?xml version="1.0" encoding="UTF-8" standalone="no"?>
<svg
   xmlns:dc="http://purl.org/dc/elements/1.1/"
   xmlns:cc="http://creativecommons.org/ns#"
   xmlns:rdf="http://www.w3.org/1999/02/22-rdf-syntax-ns#"
   xmlns:svg="http://www.w3.org/2000/svg"
   xmlns="http://www.w3.org/2000/svg"
   xmlns:sodipodi="http://sodipodi.sourceforge.net/DTD/sodipodi-0.dtd"
   xmlns:inkscape="http://www.inkscape.org/namespaces/inkscape"
   viewBox="0 0 24 24"
   version="1.1"
   id="svg12"
   sodipodi:docname="lc_graphicfiltermosaic.svg"
   inkscape:version="0.92.4 (5da689c313, 2019-01-14)">
  <metadata
     id="metadata18">
    <rdf:RDF>
      <cc:Work
         rdf:about="">
        <dc:format>image/svg+xml</dc:format>
        <dc:type
           rdf:resource="http://purl.org/dc/dcmitype/StillImage" />
      </cc:Work>
    </rdf:RDF>
  </metadata>
  <defs
     id="defs16" />
  <sodipodi:namedview
     pagecolor="#ffffff"
     bordercolor="#666666"
     borderopacity="1"
     objecttolerance="10"
     gridtolerance="10"
     guidetolerance="10"
     inkscape:pageopacity="0"
     inkscape:pageshadow="2"
     inkscape:window-width="1920"
     inkscape:window-height="1011"
     id="namedview14"
     showgrid="true"
     inkscape:zoom="27.812867"
     inkscape:cx="11.766155"
     inkscape:cy="10.448955"
     inkscape:window-x="0"
     inkscape:window-y="32"
     inkscape:window-maximized="1"
     inkscape:current-layer="svg12">
    <inkscape:grid
       type="xygrid"
       id="grid968" />
  </sodipodi:namedview>
  <path
     id="path2"
     style="fill:#e95420"
     d="m 13,14 v 3 h 3 V 14 Z M 7,11 v 3 h 3 v -3 z m 6,-3 v 3 h 3 V 8 Z M 7,5 v 3 h 3 V 5 Z" />
  <path
     id="path8"
     style="fill:#762572;fill-opacity:1"
     d="m 4,17 v 3 h 3 v -3 z m 9,-3 h -3 v 3 h 3 z m 0,-3 v 3 h 3 V 11 Z M 7,8 v 3 h 3 V 8 Z M 4,5 V 8 H 7 V 5 Z" />
  <path
     id="path970"
     style="fill:#2ecc71;fill-opacity:1"
     d="m 10,17 v 3 h 3 v -3 z m 6,-3 v 3 h 3 V 14 Z M 4,11 v 3 H 7 V 11 Z M 16,8 v 3 h 3 V 8 Z M 10,5 v 3 h 3 V 5 Z" />
  <path
     id="path972"
     style="fill:#c7162b;fill-opacity:1"
     d="m 16,17 v 3 h 3 V 17 Z M 10,14 H 7 v 3 h 3 z m 0,-3 v 3 h 3 V 11 Z M 4,8 v 3 H 7 V 8 Z m 9,-3 v 3 h 3 V 5 Z" />
  <path
     id="path974"
     style="fill:#fdbc4b;fill-opacity:1"
     d="m 13,17 v 3 h 3 v -3 z m -6,0 v 3 h 3 V 17 Z M 4,14 v 3 h 3 v -3 z m 12,-3 v 3 h 3 V 11 Z M 10,8 v 3 h 3 V 8 Z m 6,-3 v 3 h 3 V 5 Z" />
</svg>
